X:95
T: Ned Connor's
T: Sleamhnn na Srine (Shrone Slide)
S: "Johnny O'Leary of Sliabh Luachra" (#116)
Z: B.Black
L: 1/8
M: 12/8
R: slide
Q: 360
K: Amix
AB|cec B2A F2A E2A|FAF E3 F2A E3|
cec B/c/BA F2A E2F|A2B cBc A3 A2B|
c3 B/c/BA FAF E3|F2A E3 E2A E3|
cec B2A F2A E2F|A2B cBc A3 A3 ||
A2B cBc ecc ecB|A2B cBA F2A E2B|
A2B cBc ecc ecB|1 A2B c/d/cB A3 A3 :|2\
A2B cBc A3 ABc||
